libs/ui/packages/crypto-icons/src/svg/RDD.svg

<svg width="24" height="24" viewBox="0 0 24 24" fill="none">
<path opacity="0.75" fill-rule="evenodd" clip-rule="evenodd" d="M11.5237 20.25C7.23299 20.25 3.75299 16.8052 3.75299 12.5565C3.75299 8.30773 7.23224 4.86298 11.5237 4.86298C15.816 4.86298 19.2952 8.30773 19.2952 12.5565C19.2952 16.8052 15.8152 20.25 11.523 20.25H11.5237ZM12.8655 7.06723C14.6775 7.80898 15.9795 9.20473 16.9035 11.0857L17.601 10.6005C16.818 8.71648 15.3712 7.23598 13.044 6.27598L12.8655 7.06723Z" fill="#E30613" fill-opacity="0.5"/>
<path d="M20.247 6.99075C20.247 5.20125 18.7808 3.75 16.9733 3.75C15.1658 3.75 13.6995 5.20125 13.6995 6.99075C13.6995 7.16175 13.713 7.332 13.74 7.50075C14.8298 8.13525 15.705 9.04575 16.4048 10.1828C16.5923 10.215 16.7828 10.2323 16.9733 10.2323C18.7808 10.2323 20.247 8.781 20.247 6.99075Z" fill="#E30613"/>
</svg>

<svg width="24" height="24" viewBox="0 0 24 24" fill="none"><path fill="#e30613" fill-opacity=".5" fill-rule="evenodd" d="M11.524 20.25c-4.291 0-7.771-3.445-7.771-7.693 0-4.25 3.48-7.694 7.77-7.694 4.293 0 7.772 3.445 7.772 7.693 0 4.25-3.48 7.694-7.772 7.694m1.342-13.183c1.812.742 3.114 2.138 4.038 4.019l.697-.486c-.783-1.884-2.23-3.364-4.557-4.324z" clip-rule="evenodd" opacity=".75"/><path fill="#e30613" d="M20.247 6.99c0-1.789-1.466-3.24-3.274-3.24-1.807 0-3.273 1.451-3.273 3.24q0 .258.04.51c1.09.635 1.965 1.546 2.665 2.683q.282.049.568.05c1.808 0 3.274-1.452 3.274-3.242"/></svg>
